X:100
T: UEBER DIE VERHEERTEN MATTEN
N: B0588
O: Europa, Mitteleuropa, Deutschland
R: Staende -, Soldaten - Lied, Klage, Heimweh, politisch
M: 4/4
L: 1/8
K: C
 | C3G,C2E2 | D3B,G,2G,2 |
C3G,C2E2 | D3B,G,2G,2 |
E2E2EDEC | B,2A,2G,2z2 |
G,3D,G,2B,2 | A,3D,A,2C2 |
B,3G,B,2D2 | C3G,C2E2 |
F2F2E2FD | C2B,2C2z2

@@@ Tune index: 2318
